assets/img/braze_icons/equal.svg

<svg fill="none" height="24" viewBox="0 0 24 24" width="24" xmlns="http://www.w3.org/2000/svg"><g clip-rule="evenodd" fill="#801ed7" fill-rule="evenodd"><path d="m4 9c0-.55228.44772-1 1-1h14c.5523 0 1 .44772 1 1s-.4477 1-1 1h-14c-.55228 0-1-.44772-1-1z"/><path d="m4 15c0-.5523.44772-1 1-1h14c.5523 0 1 .4477 1 1s-.4477 1-1 1h-14c-.55228 0-1-.4477-1-1z"/></g></svg>

<svg width="24" height="24" viewBox="0 0 24 24" fill="none" xmlns="http://www.w3.org/2000/svg">
<path fill-rule="evenodd" clip-rule="evenodd" d="M4 9C4 8.44772 4.44772 8 5 8H19C19.5523 8 20 8.44772 20 9C20 9.55228 19.5523 10 19 10H5C4.44772 10 4 9.55228 4 9Z" fill="#801ED7"/>
<path fill-rule="evenodd" clip-rule="evenodd" d="M4 15C4 14.4477 4.44772 14 5 14H19C19.5523 14 20 14.4477 20 15C20 15.5523 19.5523 16 19 16H5C4.44772 16 4 15.5523 4 15Z" fill="#801ED7"/>
</svg>
